X:115
T: T.P.Feahan's Favorite
S: "Treoir"
Z: B.Black
M: 12/8
L: 1/8
R: slide
K: Edor
B | efe B2 A GFE B2 A | FED A2 D d2 F A2 B |
efe B2 A GFE B2 A | FED AFA E3 E2 :|
A | B2 e ede f2 a afa | baf a2 f e2 d B2 A |
B2 e ede f2 a afa | baf a2 f e3 e2 B/A/ |
B2 e ede f2 a afa | baf a2 f e2 d B2 g |
faf f2 e efe B2 A | FED FAF E3 E2 ||
